img/icon/mobile-md.svg

<svg width="26" height="38" viewBox="0 0 26 38" fill="none" xmlns="http://www.w3.org/2000/svg">
<path d="M10.5 7H15.5M21 37H5C2.79 37 1 35.21 1 33V5C1 2.79 2.79 1 5 1H21C23.21 1 25 2.79 25 5V33C25 35.21 23.21 37 21 37ZM12.998 29.5C12.722 29.5 12.498 29.724 12.5 30C12.5 30.276 12.724 30.5 13 30.5C13.276 30.5 13.5 30.276 13.5 30C13.5 29.724 13.276 29.5 12.998 29.5Z" stroke="#162F71" stroke-width="2" stroke-linecap="round" stroke-linejoin="round"/>
</svg>

<svg width="26" height="38" fill="none" xmlns="http://www.w3.org/2000/svg"><path d="M10.5 7h5M21 37H5c-2.21 0-4-1.79-4-4V5c0-2.21 1.79-4 4-4h16c2.21 0 4 1.79 4 4v28c0 2.21-1.79 4-4 4zm-8.002-7.5a.5.5 0 1 0 .502.5.5.5 0 0 0-.502-.5z" stroke="#162F71" stroke-width="2" stroke-linecap="round" stroke-linejoin="round"/></svg>
